icons/circle/48/ksirk.svg

<svg xmlns="http://www.w3.org/2000/svg" viewBox="0 0 48 48">
 <defs>
  <linearGradient id="linearGradient3764" x1="1" x2="47" gradientUnits="userSpaceOnUse" gradientTransform="matrix(0,-1,1,0,-1.5e-6,47.999998)">
   <stop style="stop-color:#e1ddb1;stop-opacity:1"/>
   <stop offset="1" style="stop-color:#e7e4c0;stop-opacity:1"/>
  </linearGradient>
  <linearGradient id="linearGradient4736" y1="24" x2="0" y2="19" gradientUnits="userSpaceOnUse">
   <stop style="stop-color:#484848;stop-opacity:1"/>
   <stop offset="0.494" style="stop-color:#505050;stop-opacity:1"/>
   <stop offset="1" style="stop-color:#484848;stop-opacity:1"/>
  </linearGradient>
 </defs>
 <g>
  <path d="m 36.31 5 c 5.859 4.062 9.688 10.831 9.688 18.5 c 0 12.426 -10.07 22.5 -22.5 22.5 c -7.669 0 -14.438 -3.828 -18.5 -9.688 c 1.037 1.822 2.306 3.499 3.781 4.969 c 4.085 3.712 9.514 5.969 15.469 5.969 c 12.703 0 23 -10.298 23 -23 c 0 -5.954 -2.256 -11.384 -5.969 -15.469 c -1.469 -1.475 -3.147 -2.744 -4.969 -3.781 z m 4.969 3.781 c 3.854 4.113 6.219 9.637 6.219 15.719 c 0 12.703 -10.297 23 -23 23 c -6.081 0 -11.606 -2.364 -15.719 -6.219 c 4.16 4.144 9.883 6.719 16.219 6.719 c 12.703 0 23 -10.298 23 -23 c 0 -6.335 -2.575 -12.06 -6.719 -16.219 z" style="opacity:0.05"/>
  <path d="m 41.28 8.781 c 3.712 4.085 5.969 9.514 5.969 15.469 c 0 12.703 -10.297 23 -23 23 c -5.954 0 -11.384 -2.256 -15.469 -5.969 c 4.113 3.854 9.637 6.219 15.719 6.219 c 12.703 0 23 -10.298 23 -23 c 0 -6.081 -2.364 -11.606 -6.219 -15.719 z" style="opacity:0.1"/>
  <path d="m 31.25 2.375 c 8.615 3.154 14.75 11.417 14.75 21.13 c 0 12.426 -10.07 22.5 -22.5 22.5 c -9.708 0 -17.971 -6.135 -21.12 -14.75 a 23 23 0 0 0 44.875 -7 a 23 23 0 0 0 -16 -21.875 z" style="opacity:0.2"/>
 </g>
 <g>
  <path d="m 24 1 c 12.703 0 23 10.297 23 23 c 0 12.703 -10.297 23 -23 23 -12.703 0 -23 -10.297 -23 -23 0 -12.703 10.297 -23 23 -23 z" style="fill:url(#linearGradient3764);fill-opacity:1"/>
 </g>
 <g>
  <path d="m 40.03 7.531 c 3.712 4.084 5.969 9.514 5.969 15.469 0 12.703 -10.297 23 -23 23 c -5.954 0 -11.384 -2.256 -15.469 -5.969 4.178 4.291 10.01 6.969 16.469 6.969 c 12.703 0 23 -10.298 23 -23 0 -6.462 -2.677 -12.291 -6.969 -16.469 z" style="opacity:0.1"/>
 </g>
 <g transform="translate(1,1)">
  <path d="m 12.533 19 c -0.295 0 -0.533 0.223 -0.533 0.5 l 0 4 c 0 0.277 0.238 0.5 0.533 0.5 l 6.645 0 a 5 5 0 0 0 -0.678 2.5 a 5 5 0 0 0 5 5 5 5 0 0 0 4.971 -4.5 l 3.529 0 l 6 4.5 0 -2 -6 -5.5 -2 0 c 1.063 0 1.918 -0.772 1.986 -1.752 a 0.75 0.75 0 0 0 0.713 -0.748 0.75 0.75 0 0 0 -0.713 -0.748 c -0.068 -0.98 -0.923 -1.752 -1.986 -1.752 l -17.467 0 m 7.467 5.582 0 1.418 -0.465 0 a 4 4 0 0 1 0.465 -1.418 m -0.463 2.418 0.463 0 l 2.293 0 -1.951 1.951 a 4 4 0 0 1 -0.805 -1.951 m 5.17 0 2.758 0 a 4 4 0 0 1 -0.809 1.949 l -1.949 -1.949 m -1.707 0.707 0 2.758 a 4 4 0 0 1 -1.949 -0.809 l 1.949 -1.949 m 1 0 1.951 1.951 a 4 4 0 0 1 -1.951 0.805 l 0 -2.756 z" style="fill:#000;fill-opacity:0.098;stroke:none;fill-rule:evenodd"/>
  <path d="m 12.533 19 c -0.295 0 -0.533 0.223 -0.533 0.5 l 0 4 c 0 0.277 0.238 0.5 0.533 0.5 l 17.467 0 c 1.063 0 1.918 -0.772 1.986 -1.752 a 0.75 0.75 0 0 0 0.713 -0.748 0.75 0.75 0 0 0 -0.713 -0.748 c -0.068 -0.98 -0.923 -1.752 -1.986 -1.752 l -17.467 0 z" transform="translate(-1,-1)" style="fill:url(#linearGradient4736);fill-opacity:1;stroke:none;fill-rule:evenodd"/>
  <path d="m 19 23 0 3 12 0 6 4.5 0 -2 -6 -5.5 z" style="fill:#8d6a3e;fill-opacity:1;stroke:none"/>
  <path d="M 24.5 22.5 A 5 5 0 0 0 20 25.332 L 20 27 L 20.535 27 A 4 4 0 0 1 21.344 25.05 L 23.293 27 L 25.707 27 L 27.658 25.05 A 4 4 0 0 1 28.463 27 L 29.475 27 A 5 5 0 0 0 24.5 22.5 z M 25 23.535 A 4 4 0 0 1 26.949 24.344 L 25 26.293 L 25 23.535 z M 24 23.537 L 24 26.293 L 22.05 24.342 A 4 4 0 0 1 24 23.537 z" transform="translate(-1,-1)" style="fill:#000;fill-opacity:0.098;stroke:none"/>
  <path d="m 22.5 20.5 a 5 5 0 0 0 -5 5 5 5 0 0 0 5 5 5 5 0 0 0 5 -5 5 5 0 0 0 -5 -5 z m 0.5 1.035 a 4 4 0 0 1 1.949 0.809 L 23 24.293 23 21.535 m -1 0.002 0 2.756 -1.951 -1.951 A 4 4 0 0 1 22 21.537 m 3.658 1.512 A 4 4 0 0 1 26.463 25 l -2.756 0 1.951 -1.951 z m -6.314 0.002 1.949 1.949 -2.758 0 A 4 4 0 0 1 19.344 23.05 M 18.537 26 l 2.756 0 -1.951 1.951 A 4 4 0 0 1 18.537 26 m 5.17 0 2.758 0 A 4 4 0 0 1 25.656 27.949 L 23.707 26 M 22 26.707 22 29.465 A 4 4 0 0 1 20.05 28.656 L 22 26.707 m 1 0 1.951 1.951 A 4 4 0 0 1 23 29.463 l 0 -2.756 z" style="fill:#b58a55;fill-opacity:1;stroke:none"/>
  <circle r="1" cy="25.5" cx="22.5" style="fill:#8d6a3e;fill-opacity:1;stroke:none"/>
 </g>
</svg>

<svg xmlns="http://www.w3.org/2000/svg" viewBox="0 0 48 48">
  <defs>
    <linearGradient id="a" x1="1" x2="47" gradientUnits="userSpaceOnUse" gradientTransform="rotate(-90 24 24)">
      <stop stop-color="#e1ddb1"/>
      <stop offset="1" stop-color="#e7e4c0"/>
    </linearGradient>
    <linearGradient id="b" y1="24" x2="0" y2="19" gradientUnits="userSpaceOnUse">
      <stop stop-color="#484848"/>
      <stop offset=".494" stop-color="#505050"/>
      <stop offset="1" stop-color="#484848"/>
    </linearGradient>
  </defs>
  <path d="M36.31 5c5.859 4.062 9.688 10.831 9.688 18.5 0 12.426-10.07 22.5-22.5 22.5-7.669 0-14.438-3.828-18.5-9.688a23.24 23.24 0 0 0 3.781 4.969 22.923 22.923 0 0 0 15.469 5.969c12.703 0 23-10.298 23-23a22.92 22.92 0 0 0-5.969-15.469A23.216 23.216 0 0 0 36.31 5zm4.969 3.781A22.911 22.911 0 0 1 47.498 24.5c0 12.703-10.297 23-23 23a22.909 22.909 0 0 1-15.719-6.219C12.939 45.425 18.662 48 24.998 48c12.703 0 23-10.298 23-23 0-6.335-2.575-12.06-6.719-16.219z" opacity=".05"/>
  <path d="M41.28 8.781a22.923 22.923 0 0 1 5.969 15.469c0 12.703-10.297 23-23 23A22.92 22.92 0 0 1 8.78 41.281 22.911 22.911 0 0 0 24.499 47.5c12.703 0 23-10.298 23-23A22.909 22.909 0 0 0 41.28 8.781z" opacity=".1"/>
  <path d="M31.25 2.375C39.865 5.529 46 13.792 46 23.505c0 12.426-10.07 22.5-22.5 22.5-9.708 0-17.971-6.135-21.12-14.75a23 23 0 0 0 44.875-7 23 23 0 0 0-16-21.875z" opacity=".2"/>
  <path d="M24 1c12.703 0 23 10.297 23 23S36.703 47 24 47 1 36.703 1 24 11.297 1 24 1z" fill="url(#a)"/>
  <g>
    <path d="M40.03 7.531A22.922 22.922 0 0 1 45.999 23c0 12.703-10.297 23-23 23A22.92 22.92 0 0 1 7.53 40.031C11.708 44.322 17.54 47 23.999 47c12.703 0 23-10.298 23-23 0-6.462-2.677-12.291-6.969-16.469z" opacity=".1"/>
  </g>
  <g transform="translate(1 1)">
    <path d="M12.533 19c-.295 0-.533.223-.533.5v4c0 .277.238.5.533.5h6.645a5 5 0 0 0-.678 2.5 5 5 0 0 0 5 5 5 5 0 0 0 4.971-4.5H32l6 4.5v-2L32 24h-2c1.063 0 1.918-.772 1.986-1.752a.75.75 0 0 0 .713-.748.75.75 0 0 0-.713-.748C31.918 19.772 31.063 19 30 19H12.533M20 24.582V26h-.465A4 4 0 0 1 20 24.582M19.537 27H22.293l-1.951 1.951A4 4 0 0 1 19.537 27m5.17 0h2.758a4 4 0 0 1-.809 1.949L24.707 27M23 27.707v2.758a4 4 0 0 1-1.949-.809L23 27.707m1 0l1.951 1.951a4 4 0 0 1-1.951.805v-2.756z" fill-opacity=".098" fill-rule="evenodd"/>
    <path d="M12.533 19c-.295 0-.533.223-.533.5v4c0 .277.238.5.533.5H30c1.063 0 1.918-.772 1.986-1.752a.75.75 0 0 0 .713-.748.75.75 0 0 0-.713-.748C31.918 19.772 31.063 19 30 19H12.533z" transform="translate(-1 -1)" fill="url(#b)" fill-rule="evenodd"/>
    <path d="M19 23v3h12l6 4.5v-2L31 23z" fill="#8d6a3e"/>
    <path d="M23.5 21.5a5 5 0 0 0-4.5 2.832V26h.535a4 4 0 0 1 .809-1.95L22.293 26h2.414l1.951-1.95a4 4 0 0 1 .805 1.95h1.012a5 5 0 0 0-4.975-4.5zm.5 1.035a4 4 0 0 1 1.949.809L24 25.293v-2.758zm-1 .002v2.756l-1.95-1.951a4 4 0 0 1 1.95-.805z" fill-opacity=".098"/>
    <path d="M22.5 20.5a5 5 0 0 0-5 5 5 5 0 0 0 5 5 5 5 0 0 0 5-5 5 5 0 0 0-5-5zm.5 1.035a4 4 0 0 1 1.949.809L23 24.293v-2.758m-1 .002v2.756l-1.951-1.951A4 4 0 0 1 22 21.537m3.658 1.512A4 4 0 0 1 26.463 25h-2.756l1.951-1.951zm-6.314.002L21.293 25h-2.758a4 4 0 0 1 .809-1.95M18.537 26h2.756l-1.951 1.951A4 4 0 0 1 18.537 26m5.17 0h2.758a4 4 0 0 1-.809 1.949L23.707 26M22 26.707v2.758a4 4 0 0 1-1.95-.809L22 26.707m1 0l1.951 1.951a4 4 0 0 1-1.951.805v-2.756z" fill="#b58a55"/>
    <circle r="1" cy="25.5" cx="22.5" fill="#8d6a3e"/>
  </g>
</svg>
